img/services-icons/phones.svg

<svg width="36" height="37" viewBox="0 0 36 37" fill="none" xmlns="http://www.w3.org/2000/svg">
<g clip-path="url(#clip0_3_247)">
<path d="M32 0H21C18.79 0 17 1.79 17 4V4.82C18.28 5.24 19.39 6.04 20.19 7.1V5.24C20.19 4.69 20.64 4.24 21.19 4.24H31.82C32.37 4.24 32.82 4.69 32.82 5.24V21.39C32.82 21.94 32.37 22.39 31.82 22.39H21.5V30H32C34.21 30 36 28.21 36 26V4C36 1.79 34.21 0 32 0ZM27.25 27.5H25.75C24.92 27.5 24.25 26.83 24.25 26C24.25 25.17 24.92 24.5 25.75 24.5H27.25C28.08 24.5 28.75 25.17 28.75 26C28.75 26.83 28.08 27.5 27.25 27.5ZM15 7H4C1.79 7 0 8.79 0 11V33C0 35.21 1.79 37 4 37H15C17.21 37 19 35.21 19 33V11C19 8.79 17.21 7 15 7ZM10.25 34.5H8.75C7.92 34.5 7.25 33.83 7.25 33C7.25 32.17 7.92 31.5 8.75 31.5H10.25C11.08 31.5 11.75 32.17 11.75 33C11.75 33.83 11.08 34.5 10.25 34.5ZM15.81 28.39C15.81 28.94 15.36 29.39 14.81 29.39H4.18C3.63 29.39 3.18 28.94 3.18 28.39V12.23C3.18 11.68 3.63 11.23 4.18 11.23H14.81C15.36 11.23 15.81 11.68 15.81 12.23V28.39Z" fill="#0158F3"/>
<path d="M13.5099 13.5H12.3799C12.0699 13.5 11.8199 13.75 11.8199 14.06V14.89C11.8199 15.14 11.6499 15.36 11.3999 15.43C11.1299 15.52 10.8599 15.63 10.6099 15.76C10.3899 15.87 10.1199 15.85 9.93992 15.67L9.34992 15.08C9.12992 14.86 8.76992 14.86 8.54992 15.08L7.74992 15.88C7.52992 16.1 7.52992 16.46 7.74992 16.68L8.33992 17.27C8.51992 17.45 8.53992 17.71 8.42992 17.94C8.29992 18.19 8.18992 18.45 8.09992 18.73C8.01992 18.97 7.80992 19.15 7.55992 19.15H6.72992C6.41992 19.15 6.16992 19.4 6.16992 19.71V20.84C6.16992 21.15 6.41992 21.4 6.72992 21.4H7.55992C7.80992 21.4 8.02992 21.57 8.09992 21.82C8.18992 22.09 8.29992 22.36 8.42992 22.61C8.53992 22.83 8.51992 23.1 8.33992 23.28L7.74992 23.87C7.52992 24.09 7.52992 24.45 7.74992 24.67L8.54992 25.47C8.76992 25.69 9.12992 25.69 9.34992 25.47L9.93992 24.88C10.1199 24.7 10.3799 24.68 10.6099 24.79C10.8599 24.92 11.1199 25.03 11.3999 25.12C11.6399 25.2 11.8199 25.41 11.8199 25.66V26.49C11.8199 26.8 12.0699 27.05 12.3799 27.05H13.5099C13.8199 27.05 14.0699 26.8 14.0699 26.49V22.87C13.7199 23.02 13.3399 23.11 12.9399 23.11C11.3799 23.11 10.1199 21.85 10.1199 20.29C10.1199 18.73 11.3799 17.47 12.9399 17.47C13.3399 17.47 13.7199 17.56 14.0699 17.71V14.09C14.0699 13.78 13.8199 13.53 13.5099 13.53V13.5ZM29.2699 12.14H28.4399C28.1899 12.14 27.9699 11.97 27.8999 11.72C27.8099 11.45 27.6999 11.18 27.5699 10.93C27.4599 10.71 27.4799 10.44 27.6599 10.26L28.2499 9.66999C28.4699 9.44999 28.4699 9.08999 28.2499 8.86999L27.4499 8.06999C27.2299 7.84999 26.8699 7.84999 26.6499 8.06999L26.0599 8.65999C25.8799 8.83999 25.6199 8.85999 25.3899 8.74999C25.1399 8.61999 24.8799 8.50999 24.5999 8.41999C24.3599 8.33999 24.1799 8.12999 24.1799 7.87999V7.04999C24.1799 6.73999 23.9299 6.48999 23.6199 6.48999H22.4899C22.1799 6.48999 21.9299 6.73999 21.9299 7.04999V10.67C22.2799 10.52 22.6599 10.43 23.0599 10.43C24.6199 10.43 25.8799 11.69 25.8799 13.25C25.8799 14.81 24.6199 16.07 23.0599 16.07C22.6599 16.07 22.2799 15.98 21.9299 15.83V19.45C21.9299 19.76 22.1799 20.01 22.4899 20.01H23.6199C23.9299 20.01 24.1799 19.76 24.1799 19.45V18.62C24.1799 18.37 24.3499 18.15 24.5999 18.08C24.8699 17.99 25.1399 17.88 25.3899 17.75C25.6099 17.63 25.8799 17.66 26.0599 17.84L26.6499 18.43C26.8699 18.65 27.2299 18.65 27.4499 18.43L28.2499 17.63C28.4699 17.41 28.4699 17.05 28.2499 16.83L27.6599 16.24C27.4799 16.06 27.4599 15.8 27.5699 15.57C27.6999 15.32 27.8099 15.06 27.8999 14.78C27.9799 14.54 28.1899 14.36 28.4399 14.36H29.2699C29.5799 14.36 29.8299 14.11 29.8299 13.8V12.67C29.8299 12.36 29.5799 12.11 29.2699 12.11V12.14Z" fill="#0158F3"/>
</g>
<defs>
<clipPath id="clip0_3_247">
<rect width="36" height="37" fill="white"/>
</clipPath>
</defs>
</svg>

<svg width="36" height="37" fill="none" xmlns="http://www.w3.org/2000/svg"><g clip-path="url(#clip0_3_247)" fill="#0158F3"><path d="M32 0H21c-2.21 0-4 1.79-4 4v.82c1.28.42 2.39 1.22 3.19 2.28V5.24c0-.55.45-1 1-1h10.63c.55 0 1 .45 1 1v16.15c0 .55-.45 1-1 1H21.5V30H32c2.21 0 4-1.79 4-4V4c0-2.21-1.79-4-4-4zm-4.75 27.5h-1.5c-.83 0-1.5-.67-1.5-1.5s.67-1.5 1.5-1.5h1.5c.83 0 1.5.67 1.5 1.5s-.67 1.5-1.5 1.5zM15 7H4c-2.21 0-4 1.79-4 4v22c0 2.21 1.79 4 4 4h11c2.21 0 4-1.79 4-4V11c0-2.21-1.79-4-4-4zm-4.75 27.5h-1.5c-.83 0-1.5-.67-1.5-1.5s.67-1.5 1.5-1.5h1.5c.83 0 1.5.67 1.5 1.5s-.67 1.5-1.5 1.5zm5.56-6.11c0 .55-.45 1-1 1H4.18c-.55 0-1-.45-1-1V12.23c0-.55.45-1 1-1h10.63c.55 0 1 .45 1 1v16.16z"/><path d="M13.51 13.5h-1.13a.56.56 0 00-.56.56v.83c0 .25-.17.47-.42.54-.27.09-.54.2-.79.33-.22.11-.49.09-.67-.09l-.59-.59a.567.567 0 00-.8 0l-.8.8c-.22.22-.22.58 0 .8l.59.59c.18.18.2.44.09.67-.13.25-.24.51-.33.79-.08.24-.29.42-.54.42h-.83a.56.56 0 00-.56.56v1.13c0 .31.25.56.56.56h.83c.25 0 .47.17.54.42.09.27.2.54.33.79.11.22.09.49-.09.67l-.59.59c-.22.22-.22.58 0 .8l.8.8c.22.22.58.22.8 0l.59-.59c.18-.18.44-.2.67-.09.25.13.51.24.79.33.24.08.42.29.42.54v.83c0 .31.25.56.56.56h1.13c.31 0 .56-.25.56-.56v-3.62c-.35.15-.73.24-1.13.24-1.56 0-2.82-1.26-2.82-2.82 0-1.56 1.26-2.82 2.82-2.82.4 0 .78.09 1.13.24v-3.62a.56.56 0 00-.56-.56v-.03zm15.76-1.36h-.83c-.25 0-.47-.17-.54-.42-.09-.27-.2-.54-.33-.79a.575.575 0 01.09-.67l.59-.59c.22-.22.22-.58 0-.8l-.8-.8a.567.567 0 00-.8 0l-.59.59c-.18.18-.44.2-.67.09a5.05 5.05 0 00-.79-.33c-.24-.08-.42-.29-.42-.54v-.83a.56.56 0 00-.56-.56h-1.13a.56.56 0 00-.56.56v3.62c.35-.15.73-.24 1.13-.24 1.56 0 2.82 1.26 2.82 2.82 0 1.56-1.26 2.82-2.82 2.82-.4 0-.78-.09-1.13-.24v3.62c0 .31.25.56.56.56h1.13c.31 0 .56-.25.56-.56v-.83c0-.25.17-.47.42-.54.27-.09.54-.2.79-.33a.56.56 0 01.67.09l.59.59c.22.22.58.22.8 0l.8-.8c.22-.22.22-.58 0-.8l-.59-.59c-.18-.18-.2-.44-.09-.67.13-.25.24-.51.33-.79.08-.24.29-.42.54-.42h.83c.31 0 .56-.25.56-.56v-1.13a.56.56 0 00-.56-.56v.03z"/></g><defs><clipPath id="clip0_3_247"><path fill="#fff" d="M0 0h36v37H0z"/></clipPath></defs></svg>
